X: 1
T: Journeyman, The
M: 6/8
L: 1/8
R: jig
K: Dmin
|: afg efd | ede dcA | afg efd | ecA def |
afg efd | ede cde | dcA GAc |1 dcA GED :|2 dcA GEC ||
Def efe | d3 cAG | ABA GFE | FDE DCA, |
Def eaf | ded cAG | ABA GFE | FDA, D2E |
F2f eaf | d3 cAG | ABA GFE | FDE DCA, |
DED DCA, | B,CF GFG | ABA GFE | FDA, D2a |
